X: 1445
T: Frank Collins' Odd Reel
B: australian traditional tunes wiki
M:2/4
L:1/8
R: Reel
Q: 1/4=100
K:A
V:1 
|:"A"ec ef/g/|"D"ag fe|"A"ec ef/g/ |"D"ag fe|
"D"f3 e |"A"ac cB|"D"A/A/A/A/ AB|"E7"cB "A"A2:|
|:"E7"B/B/B/B/ BB/B/|"A"Aa gf|"E7"ef/g/ ed|e2 ef/g/|
"A"ac cA|"D"df f>f|"E7"eg a/g/f/g/|"A"aa a2:|
% abcbook-tune_id 6342d53ab4760f2a99e9689b


% abcbook-boost 0
% abcbook-tablature 
% abcbook-transpose 
% abcbook-lastupdated 1665324365428
% abcbook-soundfonts 
% abcbook-repeats 1
% NFF Book 2018

